X:1
T:Title
%%score { ( 1 3 ) | ( 2 4 ) }
L:1/8
Q:1/4=106
M:4/4
K:Ab
V:1 treble nm="Grand Piano"
V:3 treble 
V:2 bass 
V:4 bass 
V:1
 [CE]2 [Ec]2 [DB]2 [CA]2 | [CE]4 [CEA]4 | G2 A2 B2 E2 | [EA]2 [EB]2 [Ec]2 [CEA]2 | %4
w: J.~H.~Rosecrans * * *||||
 [B,EG]2 [CEA]2 [DEB]2 [DEG]2 | A4 z4 |] %6
w: ||
V:2
 [A,,A,]2 [A,,A,]2 [A,,A,]2 [A,,A,]2 | [A,,A,]4 A,,4 | [E,B,E]2 [E,CE]2 [E,DE]2 [D,B,]2 | %3
 [C,A,]2 [E,G,]2 A,2 A,,2 | E,2 E,2 E,2 E,2 | z2 z D A,,4 |] %6
V:3
 x8 | x8 | x8 | x8 | x8 | [CE]3 F [CEA]4 |] %6
V:4
 x8 | x8 | x8 | x8 | x8 | A,,4 z4 |] %6

